X: 1496
T: Andy Davy's
R: reel
M: 4/4
K: Adorian
|:Bd|edBA GABd|edBd g2fg|eBBA GABd|eBdB A2:|
|:(3Bcd|eddg eaag|gedB GABd|eaag eaag|gedB A2:|

